X:195
M:C|
L:1/8
Q:1/2=80
K:D
|:e2|fefg fagf|edcd efge|fefg fagf|edcB A2A2|fefg fagf|edcd efge|afdf gece|d2d4:|

